build/img/icon-gosuslugi.svg

<svg width="181" height="29" viewBox="0 0 181 29" fill="none" xmlns="http://www.w3.org/2000/svg">
<g clip-path="url(#clip0_7020_145556)">
<path d="M118.059 0.668665H103.331C103.168 0.668665 103.086 0.752239 103.086 0.919386C102.677 7.68884 101.449 15.0433 99.6495 20.977V21.2277C99.7313 21.3113 99.8131 21.3113 99.8949 21.3113H104.968C105.049 21.3113 105.213 21.2277 105.213 21.1442C106.604 16.5476 107.749 10.5303 108.159 5.43235H112.986V21.0606C112.986 21.2277 113.068 21.3113 113.231 21.3113H118.059C118.222 21.3113 118.304 21.2277 118.304 21.0606V1.00296C118.304 0.835812 118.222 0.668665 118.059 0.668665ZM180.322 0.668665H175.495C175.331 0.668665 175.249 0.752239 175.249 0.919386V16.4641C174.186 16.7983 173.122 16.8819 171.977 16.8819C168.786 16.8819 168.049 15.879 168.049 11.5332V1.00296C168.049 0.835812 167.968 0.752239 167.804 0.752239H162.977C162.813 0.752239 162.731 0.835812 162.731 1.00296V12.2018C162.731 19.222 165.022 21.9799 170.995 21.9799C174.349 21.9799 178.195 21.0606 180.404 20.2249C180.486 20.2249 180.568 20.0577 180.568 19.9741V1.00296C180.568 0.835812 180.486 0.668665 180.322 0.668665ZM78.4586 0.752239H73.5495C73.3858 0.752239 73.304 0.835812 73.304 0.919386C72.5677 4.0116 71.0131 9.19316 68.8858 14.6254L63.9767 0.835812C63.9767 0.752239 63.8131 0.668665 63.7313 0.668665H58.8222C58.7404 0.668665 58.6586 0.752239 58.5767 0.752239C58.4949 0.835812 58.4949 0.919386 58.5767 1.00296L65.9404 21.562C65.204 23.1499 64.4677 24.4871 63.8131 25.7407C63.3222 26.66 62.8313 27.5793 62.3404 28.5822C62.2586 28.6658 62.3404 28.7494 62.3404 28.8329C62.4222 28.9165 62.504 29.0001 62.5858 29.0001H67.904C67.9858 29.0001 68.0677 28.9165 68.1495 28.8329C69.0495 27.0779 70.1949 24.5707 71.2586 22.0635C74.3677 14.5419 76.904 7.52169 78.7858 1.08653C78.7858 1.00296 78.7858 0.919386 78.704 0.835812C78.6222 0.752239 78.5404 0.752239 78.4586 0.752239ZM95.9677 16.5476C95.9677 16.4641 95.8858 16.3805 95.804 16.3805H95.5586C94.4131 16.7983 92.204 17.2162 90.6495 17.2162C87.2949 17.2162 85.7404 16.2969 85.7404 11.0318C85.7404 6.8531 86.2313 4.84734 90.6495 4.84734C91.8767 4.84734 93.104 5.01449 94.5767 5.51593C94.7404 5.51593 94.8222 5.51593 94.904 5.34878C95.4767 4.26232 96.1313 3.00872 96.8676 1.33725V1.08653C96.8676 1.00296 96.7858 0.919386 96.704 0.919386C94.7404 0.250798 92.3676 -0.0834961 90.3222 -0.0834961C83.2858 -0.0834961 80.1767 3.25944 80.1767 10.8646C80.1767 18.5534 83.2858 21.9799 90.3222 21.9799C92.0404 21.9799 95.5586 21.562 97.1949 20.8934C97.3586 20.8099 97.3586 20.7263 97.3586 20.5592L95.9677 16.5476ZM141.704 0.752239H136.795C136.713 0.752239 136.549 0.835812 136.549 0.919386C135.813 4.0116 134.259 9.19316 132.131 14.6254L127.222 0.835812C127.222 0.752239 127.059 0.668665 126.977 0.668665H122.068C121.986 0.668665 121.904 0.752239 121.822 0.752239C121.74 0.835812 121.74 0.919386 121.822 1.00296L129.186 21.562C128.449 23.1499 127.713 24.4035 127.059 25.7407C126.568 26.66 126.077 27.5793 125.586 28.5822C125.504 28.6658 125.586 28.7494 125.586 28.8329C125.668 28.9165 125.749 29.0001 125.831 29.0001H131.149C131.231 29.0001 131.313 28.9165 131.395 28.8329C132.295 27.0779 133.44 24.5707 134.504 22.0635C137.613 14.5419 140.149 7.52169 141.949 1.08653C141.949 1.00296 141.949 0.919386 141.868 0.835812C141.868 0.752239 141.786 0.752239 141.704 0.752239ZM159.704 0.668665H145.468C145.304 0.668665 145.222 0.752239 145.222 0.919386V21.0606C145.222 21.2277 145.304 21.3113 145.468 21.3113H150.295C150.459 21.3113 150.54 21.2277 150.54 21.0606V5.51593H157.986C158.068 5.51593 158.231 5.43235 158.231 5.34878C158.804 4.0116 159.377 2.50728 159.949 1.08653V0.835812C159.868 0.752239 159.786 0.668665 159.704 0.668665Z" fill="#EE3F58"/>
<path d="M26.1768 17.3833C22.9859 17.3833 22.0041 16.464 22.0041 11.0317C22.0041 5.18156 23.0677 4.68011 26.1768 4.68011C29.2859 4.68011 30.4313 5.18156 30.4313 11.0317C30.4313 16.5475 29.3677 17.3833 26.1768 17.3833ZM26.1768 0.0835735C19.2222 0.0835735 16.5222 3.09222 16.5222 10.9481C16.5222 18.8876 19.2222 21.9798 26.1768 21.9798C33.1313 21.9798 35.9131 18.8876 35.9131 10.9481C35.9131 3.17579 33.1313 0.0835735 26.1768 0.0835735ZM55.0586 16.5475C55.0586 16.464 54.9768 16.3804 54.895 16.3804H54.6495C53.5041 16.7983 51.295 17.2161 49.7404 17.2161C46.3859 17.2161 44.8313 16.2968 44.8313 11.0317C44.8313 6.85302 45.3222 4.84726 49.7404 4.84726C50.9677 4.84726 52.195 5.01441 53.6677 5.51585C53.7495 5.51585 53.9131 5.51585 53.995 5.3487C54.5677 4.26225 55.2222 3.00865 55.9586 1.33718V1.08646C55.9586 1.00288 55.8768 0.919308 55.795 0.919308C53.9131 0.334294 51.5404 0 49.495 0C42.4586 0 39.3495 3.34294 39.3495 10.9481C39.3495 18.6369 42.4586 22.0634 49.495 22.0634C51.2131 22.0634 54.7313 21.6455 56.3677 20.9769C56.5313 20.8934 56.5313 20.8098 56.5313 20.6427L55.0586 16.5475ZM15.0495 0.668588H0.813143C0.649506 0.668588 0.567688 0.835735 0.567688 1.00288V21.1441C0.567688 21.3112 0.649506 21.3948 0.813143 21.3948H5.64042C5.80405 21.3948 5.88587 21.3112 5.88587 21.1441V5.51585H13.3313C13.4131 5.51585 13.495 5.43228 13.5768 5.3487C14.1495 4.01153 14.7222 2.5072 15.295 1.08646V0.835735C15.2131 0.752161 15.1313 0.668588 15.0495 0.668588Z" fill="#0065B1"/>
</g>
<defs>
<clipPath id="clip0_7020_145556">
<rect width="180" height="29" fill="white" transform="translate(0.567688)"/>
</clipPath>
</defs>
</svg>

<svg width="181" height="29" fill="none" xmlns="http://www.w3.org/2000/svg"><g clip-path="url(#clip0_7020_145556)"><path d="M118.059.669h-14.728c-.163 0-.245.083-.245.25-.409 6.77-1.637 14.124-3.436 20.058v.25c.081.084.163.084.245.084h5.073c.081 0 .245-.083.245-.167 1.391-4.596 2.536-10.614 2.946-15.712h4.827v15.629c0 .167.082.25.245.25h4.828c.163 0 .245-.083.245-.25V1.003c0-.167-.082-.334-.245-.334zm62.263 0h-4.827c-.164 0-.246.083-.246.25v15.545c-1.063.334-2.127.418-3.272.418-3.191 0-3.928-1.003-3.928-5.349V1.003c0-.167-.081-.25-.245-.25h-4.827c-.164 0-.246.083-.246.25v11.199c0 7.02 2.291 9.778 8.264 9.778 3.354 0 7.2-.92 9.409-1.755.082 0 .164-.167.164-.25V1.002c0-.167-.082-.334-.246-.334zM78.459.752h-4.91c-.163 0-.245.084-.245.167-.736 3.093-2.29 8.274-4.418 13.706L63.976.835c0-.083-.163-.166-.245-.166h-4.909c-.082 0-.163.083-.245.083-.082.084-.082.167 0 .251l7.363 20.559c-.736 1.588-1.472 2.925-2.127 4.179-.49.919-.982 1.838-1.473 2.841-.081.084 0 .167 0 .25.082.084.164.168.246.168h5.318c.082 0 .164-.084.246-.167.9-1.755 2.045-4.262 3.109-6.77 3.109-7.521 5.645-14.541 7.527-20.976 0-.084 0-.168-.082-.251-.082-.084-.164-.084-.245-.084zm17.509 15.796c0-.084-.082-.167-.164-.167h-.245c-1.146.417-3.355.835-4.91.835-3.354 0-4.909-.92-4.909-6.184 0-4.179.491-6.185 4.91-6.185 1.227 0 2.454.167 3.927.669.163 0 .245 0 .327-.167a59.723 59.723 0 001.964-4.012v-.25c0-.084-.082-.168-.164-.168C94.74.251 92.368-.083 90.322-.083c-7.036 0-10.145 3.342-10.145 10.948 0 7.688 3.109 11.115 10.145 11.115 1.718 0 5.237-.418 6.873-1.087.164-.083.164-.167.164-.334l-1.391-4.011zM141.704.752h-4.909c-.082 0-.246.084-.246.167-.736 3.093-2.29 8.274-4.418 13.706L127.222.835c0-.083-.163-.166-.245-.166h-4.909c-.082 0-.164.083-.246.083-.082.084-.082.167 0 .251l7.364 20.559c-.737 1.588-1.473 2.841-2.127 4.179a88.27 88.27 0 00-1.473 2.841c-.082.084 0 .167 0 .25.082.084.163.168.245.168h5.318c.082 0 .164-.084.246-.167.9-1.755 2.045-4.262 3.109-6.77 3.109-7.521 5.645-14.541 7.445-20.976 0-.084 0-.168-.081-.251 0-.084-.082-.084-.164-.084zm18-.083h-14.236c-.164 0-.246.083-.246.25v20.142c0 .167.082.25.246.25h4.827c.164 0 .245-.083.245-.25V5.516h7.446c.082 0 .245-.084.245-.167.573-1.337 1.146-2.842 1.718-4.262V.836c-.081-.084-.163-.167-.245-.167z" fill="#EE3F58"/><path d="M26.177 17.383c-3.191 0-4.173-.919-4.173-6.351 0-5.85 1.064-6.352 4.173-6.352s4.254.502 4.254 6.352c0 5.515-1.063 6.351-4.254 6.351zm0-17.3c-6.955 0-9.655 3.01-9.655 10.865 0 7.94 2.7 11.032 9.655 11.032 6.954 0 9.736-3.092 9.736-11.032 0-7.772-2.782-10.864-9.736-10.864zm28.882 16.465c0-.084-.082-.168-.164-.168h-.245c-1.146.418-3.355.836-4.91.836-3.354 0-4.909-.92-4.909-6.184 0-4.179.491-6.185 4.91-6.185 1.227 0 2.454.167 3.927.669.081 0 .245 0 .327-.167a59.768 59.768 0 001.964-4.012v-.25c0-.084-.082-.168-.164-.168C53.913.334 51.54 0 49.495 0 42.459 0 39.35 3.343 39.35 10.948c0 7.689 3.109 11.115 10.145 11.115 1.718 0 5.236-.418 6.873-1.086.163-.084.163-.167.163-.334l-1.472-4.096zM15.049.667H.814c-.163 0-.245.168-.245.335v20.141c0 .167.082.25.245.25H5.64c.164 0 .246-.083.246-.25V5.516h7.445c.082 0 .164-.084.246-.167.572-1.337 1.145-2.842 1.718-4.263v-.25c-.082-.084-.164-.167-.245-.167z" fill="#0065B1"/></g><defs><clipPath id="clip0_7020_145556"><path fill="#fff" transform="translate(.568)" d="M0 0h180v29H0z"/></clipPath></defs></svg>
